X:1
T:Devonshire (Wesley), LM
T:Devonshire (Wesley), LM
T:Samuel Sebastian Wesley, 1864
T:Public Domain Courtesy of the Cyber Hymnal™
C:Samuel Sebastian Wesley, 1864
Z:Public Domain
Z:Courtesy of the Cyber Hymnal™
%%score ( 1 2 ) ( 3 4 )
L:1/8
Q:1/4=108
M:4/4
K:Eb
V:1 treble 
V:2 treble 
V:3 bass 
V:4 bass 
V:1
 [B,B]2 | [B,G]2 D2 [CE]2 [Ec]2 | [EB]2 A2 [EG]2 [EG]2 | F2 [FB]2 [F=A]2 [Fe]2 | %4
 [Fd]2 c2 [DB]2 [DB]2 | [Ee]2 [EB]2 [Ec]2 [EB]2 | [DA]2 [EG]2 [DF]2 [EB]2 | %7
 [Ec]2 [Af]2 [Fd]2 [Ee]2 | ([FA][EG]) [DF]2 E2 |] %9
V:2
 x2 | x2 D2 x4 | x2 (ED) x4 | F2 x6 | x2 (FE) x4 | x8 | x8 | x8 | x4 E2 |] %9
V:3
 [E,G,]2 | [E,G,]2 [B,,B,]2 [C,G,]2 [A,,F,]2 | [B,,G,]2 [B,,F,]2 E,2 [E,B,]2 | %3
 [D,B,]2 [B,,D]2 [F,C]2 [=A,C]2 | B,2 [F,=A,]2 B,2 B,2 | [G,B,]2 [E,G,]2 A,2 [G,B,]2 | %6
 [F,B,]2 [E,B,]2 [B,,B,]2 [G,B,]2 | A,2 [F,C]2 (B,A,) [C,G,]2 | [A,,C]2 [B,,A,]2 [E,G,]2 |] %9
V:4
 x2 | x8 | x4 E,2 x2 | x8 | B,2 B,2 B,2 x2 | x4 A,2 x2 | x8 | A,2 B,,2 x4 | x6 |] %9

